X: 081
M: C|
L: 1/8
K: G
V: 1
(G/A/B/c/ d)B gBdB | gBdB aAAB |\
(G/A/B/c/ d)B gBdB | cAdc BGG :|
|: f |\
gage abaf | gage beef |\
gage abaf | gddc BGG :|
V: 2 clef=bass middle=d
z |\
g2g2 g2g2 | g2g2 a2a2 |\
g2g2 g2g2 | d2d2 G2g :|\
|: z |
g2g2 a2a2 | g2g2 e2e2 |\
g2g2 a2a2 | g2d2 G2G :|

